static/logos/googleAds-glyph-color.svg

<svg width="50" height="46" viewBox="0 0 50 46" fill="none" xmlns="http://www.w3.org/2000/svg">
<g clip-path="url(#clip0_1_2608)">
<path d="M17.0485 5.74295C17.5305 4.47789 18.1931 3.31323 19.177 2.36945C23.1128 -1.46588 29.6188 -0.502027 32.2895 4.31724C34.2975 7.97186 36.426 11.5462 38.4943 15.1606C41.9481 21.1646 45.4421 27.1687 48.8557 33.1927C51.7272 38.2329 48.6148 44.5984 42.912 45.4618C39.418 45.9839 36.1449 44.3775 34.3377 41.245C31.3055 35.9638 28.2533 30.6827 25.2212 25.4217C25.161 25.3012 25.0806 25.2008 25.0003 25.1004C24.679 24.8393 24.5385 24.4578 24.3377 24.1164C22.9923 21.747 21.6067 19.3976 20.2614 17.0482C19.3979 15.5221 18.4943 14.016 17.6309 12.4899C16.8477 11.1245 16.4863 9.63853 16.5264 8.07226C16.5867 7.26905 16.6871 6.46584 17.0485 5.74295Z" fill="#3C8BD9"/>
<path d="M17.0458 5.74298C16.8651 6.46587 16.7044 7.18876 16.6643 7.95182C16.604 9.63856 17.0257 11.2048 17.8691 12.6707C20.0778 16.4659 22.2867 20.2811 24.4754 24.0964C24.6762 24.4377 24.8369 24.7791 25.0377 25.1004C23.8328 27.1887 22.628 29.257 21.4031 31.3454C19.7165 34.257 18.0297 37.1887 16.3229 40.1004C16.2426 40.1004 16.2225 40.0602 16.2024 40C16.1823 39.8393 16.2426 39.6988 16.2827 39.5381C17.106 36.5261 16.4233 33.8554 14.355 31.5663C13.09 30.1807 11.4835 29.3976 9.63614 29.1365C7.2265 28.7952 5.09799 29.4177 3.19036 30.9237C2.84899 31.1847 2.62811 31.5663 2.2265 31.7671C2.14618 31.7671 2.10602 31.7269 2.08594 31.6667C3.04979 30 3.99357 28.3333 4.95742 26.6667C8.93333 19.759 12.9092 12.8514 16.9052 5.96386C16.9454 5.88354 17.0056 5.8233 17.0458 5.74298Z" fill="#FABC04"/>
<path d="M2.16603 31.7269C2.54755 31.3855 2.909 31.0241 3.31061 30.7028C8.19012 26.8474 15.5194 29.6386 16.5837 35.743C16.8447 37.2088 16.7042 38.6145 16.2624 40.0201C16.2423 40.1406 16.2223 40.241 16.1821 40.3614C16.0014 40.6827 15.8407 41.0241 15.6399 41.3454C13.8528 44.2972 11.2223 45.7631 7.76844 45.5422C3.81261 45.261 0.70017 42.2892 0.158002 38.3534C-0.103042 36.4458 0.278484 34.6586 1.26242 33.0121C1.46322 32.6506 1.70419 32.3293 1.92507 31.9679C2.02547 31.8876 1.98531 31.7269 2.16603 31.7269Z" fill="#34A852"/>
<path d="M2.16931 31.7269C2.08899 31.8072 2.08899 31.9478 1.94843 31.9679C1.92835 31.8273 2.00867 31.747 2.08899 31.6466L2.16931 31.7269Z" fill="#FABC04"/>
<path d="M16.1817 40.3614C16.1014 40.2209 16.1817 40.1205 16.262 40.0201C16.2821 40.0402 16.3223 40.0803 16.3423 40.1004L16.1817 40.3614Z" fill="#E1C025"/>
</g>
<defs>
<clipPath id="clip0_1_2608">
<rect width="50" height="45.5823" fill="white"/>
</clipPath>
</defs>
</svg>

<svg xmlns="http://www.w3.org/2000/svg" width="69.565" height="64" fill="none" viewBox="0 0 50 46"><g clip-path="url(#a)"><path fill="#3C8BD9" d="M17.049 5.743c.482-1.265 1.144-2.43 2.128-3.374 3.936-3.835 10.442-2.871 13.112 1.948 2.008 3.655 4.137 7.23 6.205 10.844 3.454 6.004 6.948 12.008 10.362 18.032 2.871 5.04-.241 11.405-5.944 12.269-3.494.522-6.767-1.085-8.574-4.217-3.033-5.281-6.085-10.562-9.117-15.823-.06-.12-.14-.221-.22-.322-.322-.26-.463-.642-.663-.984-1.346-2.369-2.731-4.718-4.077-7.068-.863-1.526-1.767-3.032-2.63-4.558a8.315 8.315 0 0 1-1.105-4.418c.06-.803.161-1.606.523-2.329Z"/><path fill="#FABC04" d="M17.046 5.743c-.18.723-.342 1.446-.382 2.209-.06 1.687.362 3.253 1.205 4.719 2.209 3.795 4.418 7.61 6.606 11.425.201.342.362.683.563 1.004-1.205 2.089-2.41 4.157-3.635 6.245-1.686 2.912-3.373 5.844-5.08 8.755-.08 0-.1-.04-.12-.1-.02-.16.04-.301.08-.462.823-3.012.14-5.683-1.928-7.972-1.265-1.385-2.872-2.168-4.719-2.43-2.41-.34-4.538.282-6.446 1.788-.341.26-.562.642-.963.843-.08 0-.121-.04-.141-.1.964-1.667 1.908-3.334 2.871-5A6931.315 6931.315 0 0 1 16.905 5.964c.04-.08.1-.14.14-.221Z"/><path fill="#34A852" d="M2.166 31.727c.382-.341.743-.703 1.145-1.024 4.88-3.856 12.208-1.064 13.273 5.04.26 1.466.12 2.871-.322 4.277-.02.12-.04.221-.08.341-.18.322-.341.663-.542.984-1.787 2.952-4.418 4.418-7.872 4.197C3.813 45.261.7 42.29.158 38.353c-.261-1.907.12-3.694 1.104-5.34.201-.362.442-.684.663-1.045.1-.08.06-.241.241-.241Z"/><path fill="#FABC04" d="M2.17 31.727c-.081.08-.081.22-.222.24-.02-.14.06-.22.141-.32l.08.08Z"/><path fill="#E1C025" d="M16.182 40.361c-.08-.14 0-.24.08-.34l.08.08-.16.26Z"/></g><defs><clipPath id="a"><path fill="#fff" d="M0 0h50v45.582H0z"/></clipPath></defs></svg>
